X:1
T:Title
%%score { ( 1 3 ) | ( 2 4 ) }
L:1/8
M:4/4
K:Ab
V:1 treble nm="Grand Piano"
V:3 treble 
V:2 bass 
V:4 bass 
V:1
 z4 z2[Q:1/4=96] EF | [CA]6[K:bass][K:treble] z2 | z E3- E2 z2 | [FA]6 z2 | B6 z2 | %5
 [CA]6[K:bass][K:treble] z2 | z E3- E2 z2 | c6 z2 |[M:3/4] [CEA]6 |[M:1/4] cc |[M:4/4] e6 z2 | %11
[M:3/4] z c- c4 |[M:1/4] FA |[M:4/4] [FA]6 z2 |[M:3/4] B6 |[M:1/4] cc |[M:4/4] e6 z2 | %17
[M:3/4] z c- c4 |[M:1/4] FA |[M:4/4] c6 z2 |[M:3/4] [CEA]6 |] %21
V:2
 z4 z2 CD | [A,,E,]2 A,,2 A,,>[A,,A,] [A,,A,][A,,A,] | %2
 [A,,A,][A,,A,][A,,A,][A,,A,] [A,,A,][A,,A,]CC | F,2 F,2 F,>C, [B,,F,][B,,A,] | %4
 [E,G,E]>[E,G,] [E,G,][E,G,] [E,G,]2 ED | [A,,E,]2 A,,2 A,,>[A,,A,] [A,,A,][A,,A,] | %6
 [A,,A,][A,,A,][A,,A,][A,,A,] [A,,A,][A,,A,] z F | [F,A,]2 z2 z4 |[M:3/4] A,,6 | %9
[M:1/4][K:treble] EE |[M:4/4] A2- [A,A-]2 [A,A]>[A,EA] [A,DE][A,CE] | %11
[M:3/4] [A,CE][A,EA] [A,E][A,E] [A,E][A,E] |[M:1/4] z F |[M:4/4][K:bass] F,2 F,2 F,2 E/D/C | %14
[M:3/4] E2- [B,,E-]2 [E,E]2 |[M:1/4][K:treble] EE |[M:4/4] A2- [A,A-]2 [A,A]>[A,EA] [A,DE][A,CE] | %17
[M:3/4] [A,CE][A,EA] [A,E][A,E] [A,E][A,E] |[M:1/4] z F |[M:4/4][K:bass] [F,A,]2 z2 z4 | %20
[M:3/4] A,,6 |] %21
V:3
 x8 | z2[K:bass] E,2 E,>[K:treble][Ec] [DB][CA] | [DF]CCC CCEE | C2 C2 C>[A,EA] [=DB][Dc] | %4
 z z/ E/ EE E2 cB | z2[K:bass] E,2 E,>[K:treble][Ec] [DB][CA] | [DF]CCC CCFA | %7
 z2 A,2 A,>[A,EA] [DEB][DEB] |[M:3/4] x6 |[M:1/4] x2 |[M:4/4] z2 C2 C>c BA |[M:3/4] .A2 AA AA | %12
[M:1/4] x2 |[M:4/4] C2 C2 C2 c/B/A |[M:3/4] z2 G,2 G,2 |[M:1/4] x2 |[M:4/4] z2 C2 C>c BA | %17
[M:3/4] .A2 AA AA |[M:1/4] x2 |[M:4/4] z2 A,2 A,>[A,EA] [DEB][DEB] |[M:3/4] x6 |] %21
V:4
 x8 | x8 | x8 | x8 | x8 | x8 | x8 | F2- [F,F-]2 [C,F]>C, E,E, |[M:3/4] x6 |[M:1/4][K:treble] x2 | %10
[M:4/4] [A,C]2 z2 z4 |[M:3/4] x6 |[M:1/4] x2 |[M:4/4][K:bass] x8 |[M:3/4] [E,G,]2 z2 z2 | %15
[M:1/4][K:treble] x2 |[M:4/4] [A,C]2 z2 z4 |[M:3/4] x6 |[M:1/4] x2 | %19
[M:4/4][K:bass] F2- [F,F-]2 [C,F]>C, E,E, |[M:3/4] x6 |] %21

